X: 41585
T: Up And About In The Morning
R: jig
M: 6/8
K: Dmajor
|:A2D D3|ABG A2d|cAG EFG|F/G/AD EFG|
A3 DAD|ABG A2 d|cAG EFG|1 FAD D3|2 FAD D2A||
|:d2e g/f/ed|ege dcA|A3 EFG|FAD EFA|
d2e f.c/.A/f|ege dcA|A.F/.G/A EFG|FAD D3:|
|:d.f/.g/d dcA|ded dcA|A.F/.G/A AGE|A.F/.G/A ABc|
d2 e f3|ege dcA|A3 EFG|FAD D3|
d.f/.g/d dcA|ded dcA|A.F/.G/A AGE|A.F/.G/A ABc|
d.f/.g/d f.c/.A/f|e.c/.A/e d.f/.g/d|A.F/.G/A EFG|FAD D3||

